modules/hawcons-stroke/icons/icon-42-target.svg

<?xml version="1.0" encoding="UTF-8" standalone="no"?>
<svg width="32px" height="32px" viewBox="0 0 32 32" version="1.1" xmlns="http://www.w3.org/2000/svg" xmlns:xlink="http://www.w3.org/1999/xlink" xmlns:sketch="http://www.bohemiancoding.com/sketch/ns">
    <!-- Generator: Sketch 3.0.3 (7891) - http://www.bohemiancoding.com/sketch -->
    <title>icon 42 target</title>
    <desc>Created with Sketch.</desc>
    <defs></defs>
    <g id="Page-1" stroke="none" stroke-width="1" fill="none" fill-rule="evenodd" sketch:type="MSPage">
        <g id="icon-42-target" sketch:type="MSArtboardGroup" fill="#929292">
            <path d="M16,27 C22.0751322,27 27,22.0751322 27,16 C27,9.92486775 22.0751322,5 16,5 C9.92486775,5 5,9.92486775 5,16 C5,22.0751322 9.92486775,27 16,27 L16,27 Z M16,26 C21.5228475,26 26,21.5228475 26,16 C26,10.4771525 21.5228475,6 16,6 C10.4771525,6 6,10.4771525 6,16 C6,21.5228475 10.4771525,26 16,26 L16,26 Z M16,23 C19.8659932,23 23,19.8659932 23,16 C23,12.1340068 19.8659932,9 16,9 C12.1340068,9 9,12.1340068 9,16 C9,19.8659932 12.1340068,23 16,23 L16,23 Z M16,22 C19.3137085,22 22,19.3137085 22,16 C22,12.6862915 19.3137085,10 16,10 C12.6862915,10 10,12.6862915 10,16 C10,19.3137085 12.6862915,22 16,22 L16,22 Z M16,19 C17.6568542,19 19,17.6568542 19,16 C19,14.3431458 17.6568542,13 16,13 C14.3431458,13 13,14.3431458 13,16 C13,17.6568542 14.3431458,19 16,19 L16,19 Z M16,18 C17.1045695,18 18,17.1045695 18,16 C18,14.8954305 17.1045695,14 16,14 C14.8954305,14 14,14.8954305 14,16 C14,17.1045695 14.8954305,18 16,18 L16,18 Z" id="target" sketch:type="MSShapeGroup"></path>
        </g>
    </g>
</svg>

<svg width="32" height="32" viewBox="0 0 32 32" xmlns="http://www.w3.org/2000/svg"><path d="M16 27c6.075 0 11-4.925 11-11S22.075 5 16 5 5 9.925 5 16s4.925 11 11 11zm0-1c5.523 0 10-4.477 10-10S21.523 6 16 6 6 10.477 6 16s4.477 10 10 10zm0-3a7 7 0 1 0 0-14 7 7 0 0 0 0 14zm0-1a6 6 0 1 0 0-12 6 6 0 0 0 0 12zm0-3a3 3 0 1 0 0-6 3 3 0 0 0 0 6zm0-1a2 2 0 1 0 0-4 2 2 0 0 0 0 4z" fill="#929292" fill-rule="evenodd"/></svg>
